; Example G-code for visualizer testing
; This creates a simple cube outline with two layers
; Generated by Polyslice example

G28 ; Home all axes
G21 ; Set units to millimeters
G90 ; Absolute positioning

; Heat up sequence
M117 Heating up...
M109 R210 ; Set and wait for nozzle temperature
M190 R60 ; Set and wait for bed temperature
M106 S204 ; Set fan speed to 80%

; Layer 1 - Base outline at Z=0.2mm
M117 Layer 1/2
G0 X-10 Y-10 Z0.2 F3000 ; Travel to start position
G1 X10 Y-10 Z0.2 E1 F1200 ; Bottom edge
G1 X10 Y10 Z0.2 E1 F1200 ; Right edge
G1 X-10 Y10 Z0.2 E1 F1200 ; Top edge
G1 X-10 Y-10 Z0.2 E1 F1200 ; Left edge

; Infill pattern for layer 1
G1 X10 Y10 Z0.2 E1 F1200 ; Diagonal 1
G0 X-10 Y10 Z0.2 F3000 ; Travel move
G1 X10 Y-10 Z0.2 E1 F1200 ; Diagonal 2

; Layer 2 - Second layer at Z=0.4mm
M117 Layer 2/2
G0 X-10 Y-10 Z0.4 F3000 ; Travel to start position
G1 X10 Y-10 Z0.4 E1 F1200 ; Bottom edge
G1 X10 Y10 Z0.4 E1 F1200 ; Right edge
G1 X-10 Y10 Z0.4 E1 F1200 ; Top edge
G1 X-10 Y-10 Z0.4 E1 F1200 ; Left edge

; Infill pattern for layer 2
G1 X10 Y10 Z0.4 E1 F1200 ; Diagonal 1
G0 X-10 Y10 Z0.4 F3000 ; Travel move
G1 X10 Y-10 Z0.4 E1 F1200 ; Diagonal 2

; End sequence
M117 Print complete!
G0 Z20 F1000 ; Raise Z axis
M104 S0 ; Turn off nozzle heater
M140 S0 ; Turn off bed heater
M107 ; Turn off fan
G28 X Y ; Home X and Y axes
M84 ; Disable motors
