; Generated by Polyslice
; Version: Unknown
; Timestamp: 2025-10-13T10:25:06.305Z
; Repository: https://github.com/jgphilpott/polyslice
; Printer: Ender5
; Filament: Generic PLA (pla)
; Nozzle Temp: 200°C
; Bed Temp: 0°C
; Layer Height: 0.2mm

M117 Starting pre-print sequence...
M104 S200; Start Heating Nozzle
G28; Home All Axes
G0 Z10 F3000; Raise Z to 10mm (protect bed while heating)
M109 R200; Wait for Nozzle Temperature
M82; Set 'absolute' Extrusion Mode
G17; Set Workspace Plane
G21; Set Units
M117 Printing test strip...
G92 E0; Reset Extruder
G0 Z2 F3000; Move Z Up
G0 X10 Y10 Z0.25 F5000; Move to Start Position
G1 X210 Y10 Z0.25 E15 F1500; Draw First Line
G0 X210 Y10.4 Z0.25 F5000; Move to Side
G1 X10 Y10.4 Z0.25 E30 F1500; Draw Second Line
G92 E0; Reset Extruder
G0 Z2 F3000; Lift Nozzle
G92 E0; Reset Extruder Position
G1 E-5 F2700; Retract Filament
M117 Pre-print sequence complete.

M106 S255; Start Cooling Fan
M117 Printing 51 layers...
M117 LAYER: 1
G0 X105 Y105 Z0.2 F7200; Moving to wall outer
; TYPE: WALL-OUTER
G1 X105.2 Y105 Z0.2 E0.006652027009228613 F1800
G1 X115 Y105 Z0.2 E0.3326013504614304 F1800
G1 X115 Y114.8 Z0.2 E0.6585506739136322 F1800
G1 X115 Y115 Z0.2 E0.6652027009228608 F1800
G1 X114.8 Y115 Z0.2 E0.6718547279320894 F1800
G1 X105 Y115 Z0.2 E0.9978040513842912 F1800
G1 X105 Y105.2 Z0.2 E1.323753374836493 F1800
G1 X105 Y105 Z0.2 E1.3304054018457214 F1800
G0 X105.4 Y105.4 Z0.2 F7200; Moving to wall inner
; TYPE: WALL-INNER
G1 X114.6 Y105.4 Z0.2 E1.6363986442702374 F1800
G1 X114.6 Y114.6 Z0.2 E1.9423918866947534 F1800
G1 X105.4 Y114.6 Z0.2 E2.2483851291192694 F1800
G1 X105.4 Y105.4 Z0.2 E2.5543783715437853 F1800
; TYPE: SKIN
G0 X105.8 Y105.8 Z0.2 F7200; Moving to skin wall
G1 X114.2 Y105.8 Z0.2 E2.833763505931387 F1800
G1 X114.2 Y114.2 Z0.2 E3.1131486403189883 F1800
G1 X105.8 Y114.2 Z0.2 E3.39253377470659 F1800
G1 X105.8 Y105.8 Z0.2 E3.6719189090941913 F1800
G0 X106 Y106 Z0.2 F7200; Moving to skin infill line
G0 X106 Y106.56568542494924 Z0.2 F7200; Moving to skin infill line
G1 X106.56568542494924 Y106 Z0.2 E3.6985270171311058 F3600
G0 X107.13137084989847 Y106 Z0.2 F7200; Moving to skin infill line
G1 X106 Y107.13137084989847 Z0.2 E3.7517432332049347 F3600
G0 X106 Y107.69705627484771 Z0.2 F7200; Moving to skin infill line
G1 X107.69705627484771 Y106 Z0.2 E3.831567557315678 F3600
G0 X108.26274169979696 Y106 Z0.2 F7200; Moving to skin infill line
G1 X106 Y108.26274169979696 Z0.2 E3.937999989463336 F3600
G0 X106 Y108.8284271247462 Z0.2 F7200; Moving to skin infill line
G1 X108.8284271247462 Y106 Z0.2 E4.071040529647909 F3600
G0 X109.39411254969544 Y106 Z0.2 F7200; Moving to skin infill line
G1 X106 Y109.39411254969544 Z0.2 E4.230689177869396 F3600
G0 X106 Y109.95979797464467 Z0.2 F7200; Moving to skin infill line
G1 X109.95979797464467 Y106 Z0.2 E4.416945934127797 F3600
G0 X110.52548339959391 Y106 Z0.2 F7200; Moving to skin infill line
G1 X106 Y110.52548339959391 Z0.2 E4.6298107984231125 F3600
G0 X106 Y111.09116882454315 Z0.2 F7200; Moving to skin infill line
G1 X111.09116882454315 Y106 Z0.2 E4.8692837707553425 F3600
G0 X111.65685424949238 Y106 Z0.2 F7200; Moving to skin infill line
G1 X106 Y111.65685424949238 Z0.2 E5.1353648511244865 F3600
G0 X106 Y112.22253967444162 Z0.2 F7200; Moving to skin infill line
G1 X112.22253967444162 Y106 Z0.2 E5.428054039530545 F3600
G0 X112.78822509939086 Y106 Z0.2 F7200; Moving to skin infill line
G1 X106 Y112.78822509939086 Z0.2 E5.747351335973518 F3600
G0 X106 Y113.3539105243401 Z0.2 F7200; Moving to skin infill line
G1 X113.3539105243401 Y106 Z0.2 E6.093256740453406 F3600
G0 X113.91959594928933 Y106 Z0.2 F7200; Moving to skin infill line
G1 X106 Y113.91959594928933 Z0.2 E6.465770252970208 F3600
G0 X106.48528137423857 Y114 Z0.2 F7200; Moving to skin infill line
G1 X114 Y106.48528137423857 Z0.2 E6.819239577514351 F3600
G0 X114 Y107.05096679918782 Z0.2 F7200; Moving to skin infill line
G1 X107.05096679918782 Y114 Z0.2 E7.146100794021578 F3600
G0 X107.61665222413706 Y114 Z0.2 F7200; Moving to skin infill line
G1 X114 Y107.61665222413706 Z0.2 E7.446353902491891 F3600
G0 X114 Y108.18233764908629 Z0.2 F7200; Moving to skin infill line
G1 X108.18233764908629 Y114 Z0.2 E7.7199989029252905 F3600
G0 X108.74802307403553 Y114 Z0.2 F7200; Moving to skin infill line
G1 X114 Y108.74802307403553 Z0.2 E7.967035795321775 F3600
G0 X114 Y109.31370849898477 Z0.2 F7200; Moving to skin infill line
G1 X109.31370849898477 Y114 Z0.2 E8.187464579681345 F3600
G0 X109.879393923934 Y114 Z0.2 F7200; Moving to skin infill line
G1 X114 Y109.879393923934 Z0.2 E8.381285256004 F3600
G0 X114 Y110.44507934888324 Z0.2 F7200; Moving to skin infill line
G1 X110.44507934888324 Y114 Z0.2 E8.548497824289742 F3600
G0 X111.01076477383248 Y114 Z0.2 F7200; Moving to skin infill line
G1 X114 Y111.01076477383248 Z0.2 E8.689102284538569 F3600
G0 X114 Y111.57645019878171 Z0.2 F7200; Moving to skin infill line
G1 X111.57645019878171 Y114 Z0.2 E8.80309863675048 F3600
G0 X112.14213562373095 Y114 Z0.2 F7200; Moving to skin infill line
G1 X114 Y112.14213562373095 Z0.2 E8.890486880925478 F3600
G0 X114 Y112.70782104868019 Z0.2 F7200; Moving to skin infill line
G1 X112.70782104868019 Y114 Z0.2 E8.95126701706356 F3600
G0 X113.27350647362942 Y114 Z0.2 F7200; Moving to skin infill line
G1 X114 Y113.27350647362942 Z0.2 E8.98543904516473 F3600
G0 X114 Y113.83919189857866 Z0.2 F7200; Moving to skin infill line
G1 X113.83919189857866 Y114 Z0.2 E8.993002965228985 F3600
M117 LAYER: 2
G0 X105 Y105 Z0.4 F7200; Moving to wall outer
; TYPE: WALL-OUTER
G1 X105.4 Y105 Z0.4 E9.006307019247442 F1800
G1 X115 Y105 Z0.4 E9.325604315690416 F1800
G1 X115 Y114.6 Z0.4 E9.64490161213339 F1800
G1 X115 Y115 Z0.4 E9.658205666151847 F1800
G1 X114.6 Y115 Z0.4 E9.671509720170304 F1800
G1 X105 Y115 Z0.4 E9.990807016613278 F1800
G1 X105 Y105.4 Z0.4 E10.310104313056252 F1800
G1 X105 Y105 Z0.4 E10.323408367074709 F1800
G0 X105.4 Y105.4 Z0.4 F7200; Moving to wall inner
; TYPE: WALL-INNER
G1 X114.6 Y105.4 Z0.4 E10.629401609499224 F1800
G1 X114.6 Y114.6 Z0.4 E10.93539485192374 F1800
G1 X105.4 Y114.6 Z0.4 E11.241388094348254 F1800
G1 X105.4 Y105.4 Z0.4 E11.54738133677277 F1800
; TYPE: SKIN
G0 X105.8 Y105.8 Z0.4 F7200; Moving to skin wall
G1 X114.2 Y105.8 Z0.4 E11.82676647116037 F1800
G1 X114.2 Y114.2 Z0.4 E12.106151605547971 F1800
G1 X105.8 Y114.2 Z0.4 E12.385536739935572 F1800
G1 X105.8 Y105.8 Z0.4 E12.664921874323174 F1800
G0 X114 Y106 Z0.4 F7200; Moving to skin infill line
G0 X114 Y106.56568542494924 Z0.4 F7200; Moving to skin infill line
G1 X113.43431457505076 Y106 Z0.4 E12.691529982360088 F3600
G0 X112.86862915010153 Y106 Z0.4 F7200; Moving to skin infill line
G1 X114 Y107.13137084989847 Z0.4 E12.744746198433917 F3600
G0 X114 Y107.69705627484771 Z0.4 F7200; Moving to skin infill line
G1 X112.30294372515229 Y106 Z0.4 E12.824570522544661 F3600
G0 X111.73725830020304 Y106 Z0.4 F7200; Moving to skin infill line
G1 X114 Y108.26274169979696 Z0.4 E12.93100295469232 F3600
G0 X114 Y108.8284271247462 Z0.4 F7200; Moving to skin infill line
G1 X111.1715728752538 Y106 Z0.4 E13.064043494876891 F3600
G0 X110.60588745030456 Y106 Z0.4 F7200; Moving to skin infill line
G1 X114 Y109.39411254969544 Z0.4 E13.223692143098377 F3600
G0 X114 Y109.95979797464467 Z0.4 F7200; Moving to skin infill line
G1 X110.04020202535533 Y106 Z0.4 E13.40994889935678 F3600
G0 X109.47451660040609 Y106 Z0.4 F7200; Moving to skin infill line
G1 X114 Y110.52548339959391 Z0.4 E13.622813763652095 F3600
G0 X114 Y111.09116882454315 Z0.4 F7200; Moving to skin infill line
G1 X108.90883117545685 Y106 Z0.4 E13.862286735984325 F3600
G0 X108.34314575050762 Y106 Z0.4 F7200; Moving to skin infill line
G1 X114 Y111.65685424949238 Z0.4 E14.12836781635347 F3600
G0 X114 Y112.22253967444162 Z0.4 F7200; Moving to skin infill line
G1 X107.77746032555838 Y106 Z0.4 E14.421057004759527 F3600
G0 X107.21177490060914 Y106 Z0.4 F7200; Moving to skin infill line
G1 X114 Y112.78822509939086 Z0.4 E14.740354301202501 F3600
G0 X114 Y113.3539105243401 Z0.4 F7200; Moving to skin infill line
G1 X106.6460894756599 Y106 Z0.4 E15.086259705682389 F3600
G0 X106.08040405071067 Y106 Z0.4 F7200; Moving to skin infill line
G1 X114 Y113.91959594928933 Z0.4 E15.458773218199191 F3600
G0 X113.51471862576143 Y114 Z0.4 F7200; Moving to skin infill line
G1 X106 Y106.48528137423857 Z0.4 E15.812242542743332 F3600
G0 X106 Y107.05096679918782 Z0.4 F7200; Moving to skin infill line
G1 X112.94903320081218 Y114 Z0.4 E16.13910375925056 F3600
G0 X112.38334777586294 Y114 Z0.4 F7200; Moving to skin infill line
G1 X106 Y107.61665222413706 Z0.4 E16.43935686772087 F3600
G0 X106 Y108.18233764908629 Z0.4 F7200; Moving to skin infill line
G1 X111.81766235091371 Y114 Z0.4 E16.71300186815427 F3600
G0 X111.25197692596447 Y114 Z0.4 F7200; Moving to skin infill line
G1 X106 Y108.74802307403553 Z0.4 E16.960038760550752 F3600
G0 X106 Y109.31370849898477 Z0.4 F7200; Moving to skin infill line
G1 X110.68629150101523 Y114 Z0.4 E17.18046754491032 F3600
G0 X110.120606076066 Y114 Z0.4 F7200; Moving to skin infill line
G1 X106 Y109.879393923934 Z0.4 E17.374288221232977 F3600
G0 X106 Y110.44507934888324 Z0.4 F7200; Moving to skin infill line
G1 X109.55492065111676 Y114 Z0.4 E17.541500789518718 F3600
G0 X108.98923522616752 Y114 Z0.4 F7200; Moving to skin infill line
G1 X106 Y111.01076477383248 Z0.4 E17.682105249767545 F3600
G0 X106 Y111.57645019878171 Z0.4 F7200; Moving to skin infill line
G1 X108.42354980121829 Y114 Z0.4 E17.79610160197946 F3600
G0 X107.85786437626905 Y114 Z0.4 F7200; Moving to skin infill line
G1 X106 Y112.14213562373095 Z0.4 E17.883489846154458 F3600
G0 X106 Y112.70782104868019 Z0.4 F7200; Moving to skin infill line
G1 X107.29217895131981 Y114 Z0.4 E17.944269982292543 F3600
G0 X106.72649352637058 Y114 Z0.4 F7200; Moving to skin infill line
G1 X106 Y113.27350647362942 Z0.4 E17.97844201039371 F3600
G0 X106 Y113.83919189857866 Z0.4 F7200; Moving to skin infill line
G1 X106.16080810142134 Y114 Z0.4 E17.986005930457964 F3600
M117 LAYER: 3
G0 X105 Y105 Z0.6000000000000001 F7200; Moving to wall outer
; TYPE: WALL-OUTER
G1 X105.6 Y105 Z0.6000000000000001 E18.00596201148565 F1800
G1 X115 Y105 Z0.6000000000000001 E18.318607280919394 F1800
G1 X115 Y114.4 Z0.6000000000000001 E18.63125255035314 F1800
G1 X115 Y115 Z0.6000000000000001 E18.651208631380825 F1800
G1 X114.4 Y115 Z0.6000000000000001 E18.671164712408512 F1800
G1 X105 Y115 Z0.6000000000000001 E18.983809981842256 F1800
G1 X105 Y105.6 Z0.6000000000000001 E19.296455251276 F1800
G1 X105 Y105 Z0.6000000000000001 E19.316411332303687 F1800
G0 X105.4 Y105.4 Z0.6000000000000001 F7200; Moving to wall inner
; TYPE: WALL-INNER
G1 X114.6 Y105.4 Z0.6000000000000001 E19.622404574728204 F1800
G1 X114.6 Y114.6 Z0.6000000000000001 E19.92839781715272 F1800
G1 X105.4 Y114.6 Z0.6000000000000001 E20.234391059577238 F1800
G1 X105.4 Y105.4 Z0.6000000000000001 E20.540384302001755 F1800
; TYPE: SKIN
G0 X105.8 Y105.8 Z0.6000000000000001 F7200; Moving to skin wall
G1 X114.2 Y105.8 Z0.6000000000000001 E20.819769436389358 F1800
G1 X114.2 Y114.2 Z0.6000000000000001 E21.09915457077696 F1800
G1 X105.8 Y114.2 Z0.6000000000000001 E21.378539705164563 F1800
G1 X105.8 Y105.8 Z0.6000000000000001 E21.657924839552166 F1800
G0 X106 Y106 Z0.6000000000000001 F7200; Moving to skin infill line
G0 X106 Y106.56568542494924 Z0.6000000000000001 F7200; Moving to skin infill line
G1 X106.56568542494924 Y106 Z0.6000000000000001 E21.68453294758908 F3600
G0 X107.13137084989847 Y106 Z0.6000000000000001 F7200; Moving to skin infill line
G1 X106 Y107.13137084989847 Z0.6000000000000001 E21.737749163662908 F3600
G0 X106 Y107.69705627484771 Z0.6000000000000001 F7200; Moving to skin infill line
G1 X107.69705627484771 Y106 Z0.6000000000000001 E21.81757348777365 F3600
G0 X108.26274169979696 Y106 Z0.6000000000000001 F7200; Moving to skin infill line
G1 X106 Y108.26274169979696 Z0.6000000000000001 E21.924005919921306 F3600
G0 X106 Y108.8284271247462 Z0.6000000000000001 F7200; Moving to skin infill line
G1 X108.8284271247462 Y106 Z0.6000000000000001 E22.05704646010588 F3600
G0 X109.39411254969544 Y106 Z0.6000000000000001 F7200; Moving to skin infill line
G1 X106 Y109.39411254969544 Z0.6000000000000001 E22.216695108327368 F3600
G0 X106 Y109.95979797464467 Z0.6000000000000001 F7200; Moving to skin infill line
G1 X109.95979797464467 Y106 Z0.6000000000000001 E22.40295186458577 F3600
G0 X110.52548339959391 Y106 Z0.6000000000000001 F7200; Moving to skin infill line
G1 X106 Y110.52548339959391 Z0.6000000000000001 E22.615816728881086 F3600
G0 X106 Y111.09116882454315 Z0.6000000000000001 F7200; Moving to skin infill line
G1 X111.09116882454315 Y106 Z0.6000000000000001 E22.855289701213316 F3600
G0 X111.65685424949238 Y106 Z0.6000000000000001 F7200; Moving to skin infill line
G1 X106 Y111.65685424949238 Z0.6000000000000001 E23.12137078158246 F3600
G0 X106 Y112.22253967444162 Z0.6000000000000001 F7200; Moving to skin infill line
G1 X112.22253967444162 Y106 Z0.6000000000000001 E23.414059969988518 F3600
G0 X112.78822509939086 Y106 Z0.6000000000000001 F7200; Moving to skin infill line
G1 X106 Y112.78822509939086 Z0.6000000000000001 E23.73335726643149 F3600
G0 X106 Y113.3539105243401 Z0.6000000000000001 F7200; Moving to skin infill line
G1 X113.3539105243401 Y106 Z0.6000000000000001 E24.079262670911376 F3600
G0 X113.91959594928933 Y106 Z0.6000000000000001 F7200; Moving to skin infill line
G1 X106 Y113.91959594928933 Z0.6000000000000001 E24.45177618342818 F3600
G0 X106.48528137423857 Y114 Z0.6000000000000001 F7200; Moving to skin infill line
G1 X114 Y106.48528137423857 Z0.6000000000000001 E24.805245507972323 F3600
G0 X114 Y107.05096679918782 Z0.6000000000000001 F7200; Moving to skin infill line
G1 X107.05096679918782 Y114 Z0.6000000000000001 E25.132106724479552 F3600
G0 X107.61665222413706 Y114 Z0.6000000000000001 F7200; Moving to skin infill line
G1 X114 Y107.61665222413706 Z0.6000000000000001 E25.432359832949864 F3600
G0 X114 Y108.18233764908629 Z0.6000000000000001 F7200; Moving to skin infill line
G1 X108.18233764908629 Y114 Z0.6000000000000001 E25.70600483338326 F3600
G0 X108.74802307403553 Y114 Z0.6000000000000001 F7200; Moving to skin infill line
G1 X114 Y108.74802307403553 Z0.6000000000000001 E25.953041725779745 F3600
G0 X114 Y109.31370849898477 Z0.6000000000000001 F7200; Moving to skin infill line
G1 X109.31370849898477 Y114 Z0.6000000000000001 E26.173470510139314 F3600
G0 X109.879393923934 Y114 Z0.6000000000000001 F7200; Moving to skin infill line
G1 X114 Y109.879393923934 Z0.6000000000000001 E26.36729118646197 F3600
G0 X114 Y110.44507934888324 Z0.6000000000000001 F7200; Moving to skin infill line
G1 X110.44507934888324 Y114 Z0.6000000000000001 E26.53450375474771 F3600
G0 X111.01076477383248 Y114 Z0.6000000000000001 F7200; Moving to skin infill line
G1 X114 Y111.01076477383248 Z0.6000000000000001 E26.675108214996538 F3600
G0 X114 Y111.57645019878171 Z0.6000000000000001 F7200; Moving to skin infill line
G1 X111.57645019878171 Y114 Z0.6000000000000001 E26.78910456720845 F3600
G0 X112.14213562373095 Y114 Z0.6000000000000001 F7200; Moving to skin infill line
G1 X114 Y112.14213562373095 Z0.6000000000000001 E26.87649281138345 F3600
G0 X114 Y112.70782104868019 Z0.6000000000000001 F7200; Moving to skin infill line
G1 X112.70782104868019 Y114 Z0.6000000000000001 E26.937272947521535 F3600
G0 X113.27350647362942 Y114 Z0.6000000000000001 F7200; Moving to skin infill line
G1 X114 Y113.27350647362942 Z0.6000000000000001 E26.971444975622703 F3600
G0 X114 Y113.83919189857866 Z0.6000000000000001 F7200; Moving to skin infill line
G1 X113.83919189857866 Y114 Z0.6000000000000001 E26.979008895686956 F3600
M117 LAYER: 4
G0 X105 Y105 Z0.8 F7200; Moving to wall outer
; TYPE: WALL-OUTER
G1 X105.8 Y105 Z0.8 E27.00561700372387 F1800
G1 X115 Y105 Z0.8 E27.311610246148387 F1800
G1 X115 Y114.2 Z0.8 E27.617603488572904 F1800
G1 X115 Y115 Z0.8 E27.644211596609818 F1800
G1 X114.2 Y115 Z0.8 E27.670819704646732 F1800
G1 X105 Y115 Z0.8 E27.97681294707125 F1800
